X:1
T:My Last Farewell to Sterling
M:4/4
L:1/8
K:C
 G2| C3 CE-D C2| E3 F G3A/2-B/2| c3 G G2F-E| D3 C _B,2|| z D| C3 CE-D C2|\
 E3 F G2A-B| c2 c2G-F D2| E C3 C4| z4 z2||
